src/pos-icons/comment-check.svg

<svg height="24" viewBox="0 0 24 24" width="24" xmlns="http://www.w3.org/2000/svg"><path d="m9 22a1 1 0 0 1 -1-1v-3h-4a2 2 0 0 1 -2-2v-12c0-1.11.9-2 2-2h16a2 2 0 0 1 2 2v12a2 2 0 0 1 -2 2h-6.1l-3.7 3.71c-.2.19-.45.29-.7.29zm1-7 8-8-1.41-1.42-6.59 6.59-2.59-2.58-1.41 1.41z"/></svg>

<?xml version="1.0" encoding="UTF-8"?><!DOCTYPE svg PUBLIC "-//W3C//DTD SVG 1.1//EN" "http://www.w3.org/Graphics/SVG/1.1/DTD/svg11.dtd"><svg xmlns="http://www.w3.org/2000/svg" xmlns:xlink="http://www.w3.org/1999/xlink" version="1.1" id="mdi-comment-check" width="24" height="24" viewBox="0 0 24 24"><path d="M9,22A1,1 0 0,1 8,21V18H4A2,2 0 0,1 2,16V4C2,2.89 2.9,2 4,2H20A2,2 0 0,1 22,4V16A2,2 0 0,1 20,18H13.9L10.2,21.71C10,21.9 9.75,22 9.5,22V22H9M10,15L18,7L16.59,5.58L10,12.17L7.41,9.59L6,11L10,15Z" /></svg>
